modules/feathericon/icons/search-plus.svg

<?xml version="1.0" encoding="UTF-8"?>
<svg width="24px" height="24px" viewBox="0 0 24 24" version="1.1" xmlns="http://www.w3.org/2000/svg" xmlns:xlink="http://www.w3.org/1999/xlink">
    <!-- Generator: sketchtool 52.2 (67145) - http://www.bohemiancoding.com/sketch -->
    <title>search-plus</title>
    <desc>Created with sketchtool.</desc>
    <g id="web-app" stroke="none" stroke-width="1" fill="none" fill-rule="evenodd">
        <g id="search-plus" fill="#000000">
            <path d="M16.3250784,14.8989201 L21.704633,20.2784747 C22.0984557,20.6722974 22.0984557,21.3108102 21.704633,21.704633 C21.3108102,22.0984557 20.6722974,22.0984557 20.2784747,21.704633 L14.8989201,16.3250784 C13.5453296,17.3749907 11.8456542,18 10,18 C5.581722,18 2,14.418278 2,10 C2,5.581722 5.581722,2 10,2 C14.418278,2 18,5.581722 18,10 C18,11.8456542 17.3749907,13.5453296 16.3250784,14.8989201 Z M10,16 C13.3137085,16 16,13.3137085 16,10 C16,6.6862915 13.3137085,4 10,4 C6.6862915,4 4,6.6862915 4,10 C4,13.3137085 6.6862915,16 10,16 Z M13,11 L11,11 L11,13 C11,13.5522847 10.5522847,14 10,14 C9.44771525,14 9,13.5522847 9,13 L9,11 L7,11 C6.44771525,11 6,10.5522847 6,10 C6,9.44771525 6.44771525,9 7,9 L9,9 L9,7 C9,6.44771525 9.44771525,6 10,6 C10.5522847,6 11,6.44771525 11,7 L11,9 L13,9 C13.5522847,9 14,9.44771525 14,10 C14,10.5522847 13.5522847,11 13,11 Z" id="Shape"></path>
        </g>
    </g>
</svg>

<svg width="24" height="24" viewBox="0 0 24 24" xmlns="http://www.w3.org/2000/svg"><path d="M16.325 14.899l5.38 5.38a1.008 1.008 0 0 1-1.427 1.426l-5.38-5.38a8 8 0 1 1 1.426-1.426zM10 16a6 6 0 1 0 0-12 6 6 0 0 0 0 12zm3-5h-2v2a1 1 0 0 1-2 0v-2H7a1 1 0 0 1 0-2h2V7a1 1 0 1 1 2 0v2h2a1 1 0 0 1 0 2z" fill="#000" fill-rule="evenodd"/></svg>
